X:710
T:Power To The Harmonica 
C:Joe Buchanan's Scottish Tome - Page 233.1
I:233 1
Z:Carl Allison
C:Graeme Mitchell
R:Reel
L:1/8
M:4/4
K:G
ge | "G"dB (3BBB "D/G"BcBA | "G"GABd "C"efge | "G"dB (3BBB "D/G"BAGB | "A7"degB "D7"A2 ge |
"G"dB (3BBB "D/G"BcBA | "B/G7"GABd "C"efge | "B/G"dged "C"efge | "D7"dBAB "G"G2 :|
ef | "C"ge (3eee "C/G"efge | "B/G7"dBBc "G"BABd | "C"efge "B/G"dBAG | "A7"degB "D7"A2 "G7"ef |
"C"ge (3eee "C/G"efge | "B/G7"dBBc "G"BABc | "B/G"dged "C"efge | "D7"dBAB "G"G2 ef |
"C"ge (3eee "C/G"efge | "B/G7"dBBc "G"BABd | "C"efge "B/G"dBAG | "A7"degB "D7"Agfe |
"G"dB (3BBB "A/D7"BcBA | "B/G7"GABd "C"efge | "B/G"dged "C"efge | "D7"dBAB "G"G2 |]

